X: 10233
T: Do The Dishes
R: reel
M: 4/4
K: Bminor
~g3d egdB|~A3B AGEG|D~G3 BGAB|A2AG ABde|
g2gd egdB|AGAB AGEG|D~G3 BGAB|1 AGFA G2 B/=c/d|2 AGFA G3E||
F~B3 fBdf|e2ef edcA|B~F3 dFBd|c2cB AFFE|
F~B3 fBdf|e2ed efaf|bfab edef|edcA B2BA|
F~B3 fBdf|e2ef edcA|B~F3 dFBd|c2cd cBAE|
F~B3 fBdf|e2ed efaf|bfab edef|edcA Bcdf||

